X: 2116
T: Mrs MacLeod Of Raasay
B: nick
B: to learn
M:4/4
R: reel
Q: 1/4=100
K:Amajor
V:1 
cB|:A2 a2 fefa|cccB c2cB|A2 a2 fefa|BBBA B2cB|
 A2 a2 fefa|cccB c2 e2|fffe f2ef|afec B2cB:|
 |:ABcd eAcA|cccB c2cB|ABcd eAcA BBBA B2cB|
 ABcd eAcA|cccB c2 e2|fffe f2ef|afec B2cB:|
% abcbook-tune_id 634561f93b56420f8e6e9015
% abcbook-link-0 https://www.youtube.com/watch?v=q9IMqZfVqUA
% abcbook-link-title-0 Mrs. Macleod Of Raasay

% abcbook-boost 0
% abcbook-tablature 
% abcbook-transpose 
% abcbook-lastupdated 1666789734639
% abcbook-soundfonts 
% abcbook-repeats 3


